svgs/logseq.svg

<svg xmlns="http://www.w3.org/2000/svg" viewBox="0 0 192 192"><path d="M27.83 21.432c-5.556 3.302-9.264 9.207-10.302 16.405-1.038 7.198.678 15.115 4.766 21.993C26.383 66.709 32.518 72 39.337 74.529c6.82 2.529 13.78 2.095 19.336-1.207 5.556-3.302 9.265-9.207 10.303-16.405 1.037-7.199-.678-15.115-4.767-21.994-4.088-6.878-10.223-12.169-17.043-14.698-6.82-2.529-13.78-2.095-19.336 1.207ZM103.728 17.816c-5.083 1.411-9.734 3.878-13.283 7.046-3.55 3.169-5.818 6.878-6.478 10.594-.66 3.716.321 7.251 2.802 10.095 2.482 2.845 6.337 4.855 11.012 5.741 4.675.885 9.933.603 15.016-.808s9.734-3.878 13.283-7.046c3.55-3.169 5.818-6.878 6.478-10.594.66-3.716-.321-7.251-2.802-10.095-2.482-2.844-6.338-4.854-11.013-5.74-4.674-.886-9.932-.604-15.015.807ZM49.878 115.958c-1.198 14.338 4.227 28.653 15.071 39.769 10.844 11.115 26.241 18.142 42.774 19.523 16.534 1.38 32.883-2.997 45.42-12.16 12.538-9.163 20.262-22.38 21.46-36.719 1.198-14.338-4.228-28.654-15.072-39.769-10.844-11.115-26.24-18.142-42.774-19.523-16.533-1.38-32.882 2.997-45.42 12.16-12.537 9.163-20.262 22.38-21.459 36.719Z" fill="none" stroke="#000" stroke-width="12" stroke-linecap="round" stroke-linejoin="round"/></svg>

<svg
    xmlns="http://www.w3.org/2000/svg"
    viewBox="0 0 192 192"
    id="vector">
    <path
        id="path"
        d="M 27.83 21.432 C 22.274 24.734 18.566 30.639 17.528 37.837 C 16.49 45.035 18.206 52.952 22.294 59.83 C 26.383 66.709 32.518 72 39.337 74.529 C 46.157 77.058 53.117 76.624 58.673 73.322 C 64.229 70.02 67.938 64.115 68.976 56.917 C 70.013 49.718 68.298 41.802 64.209 34.923 C 60.121 28.045 53.986 22.754 47.166 20.225 C 40.346 17.696 33.386 18.13 27.83 21.432 Z"
        fill="none"
        stroke="#000000"
        stroke-width="12"
        stroke-linecap="round"
        stroke-linejoin="round"/>
    <path
        id="path_1"
        d="M 103.728 17.816 C 98.645 19.227 93.994 21.694 90.445 24.862 C 86.895 28.031 84.627 31.74 83.967 35.456 C 83.307 39.172 84.288 42.707 86.769 45.551 C 89.251 48.396 93.106 50.406 97.781 51.292 C 102.456 52.177 107.714 51.895 112.797 50.484 C 117.88 49.073 122.531 46.606 126.08 43.438 C 129.63 40.269 131.898 36.56 132.558 32.844 C 133.218 29.128 132.237 25.593 129.756 22.749 C 127.274 19.905 123.418 17.895 118.743 17.009 C 114.069 16.123 108.811 16.405 103.728 17.816 Z"
        fill="none"
        stroke="#000000"
        stroke-width="12"
        stroke-linecap="round"
        stroke-linejoin="round"/>
    <path
        id="path_2"
        d="M 49.878 115.958 C 48.68 130.296 54.105 144.611 64.949 155.727 C 75.793 166.842 91.19 173.869 107.723 175.25 C 124.257 176.63 140.606 172.253 153.143 163.09 C 165.681 153.927 173.405 140.71 174.603 126.371 C 175.801 112.033 170.375 97.717 159.531 86.602 C 148.687 75.487 133.291 68.46 116.757 67.079 C 100.224 65.699 83.875 70.076 71.337 79.239 C 58.8 88.402 51.075 101.619 49.878 115.958 Z"
        fill="none"
        stroke="#000000"
        stroke-width="12"
        stroke-linecap="round"
        stroke-linejoin="round"/>
</svg>
